X: 33
T: No_126_War_Song.krn
N: Derived from No_126_War_Song.krn
%%abc-version 2.0
%%abcx-abcm2ps-target-version 5.9.1 (29 Sep 2008)
%%abc-creator hum2abc beta
%%abcx-conversion-date 2019/03/15 08:35:44
%%humdrum-veritas 3669504491
%%humdrum-veritas-data 3507326226
%%linebreak <none>
%%barnumbers 0
L: 1/16
M: 2/4
K: G clef=treble
[K:clef=treble][M:2/4]z4z3 D | 
A4A3F | 
(ED3) D3E | 
D4(DB,2)B, ||  
[M:3/4]A,4A,4A,3D ||  
[M:2/4]D4DB,2B, | 
E,4E,2 z B, | 
A,4A,3B, | 
B,4B,A,3 | 
A,4A,3D | 
D4D3B, | 
A,4A,G,2G, | 
E,4E,2 z2 | 
E,4F,4 | 
F,E,3E,4 |]  



